images/3232929.svg

<?xml version="1.0" encoding="UTF-8"?>
<svg xmlns="http://www.w3.org/2000/svg" xmlns:xlink="http://www.w3.org/1999/xlink" width="300pt" height="300pt" viewBox="0 0 300 300" version="1.1">
<defs>
<g>
<symbol overflow="visible" id="glyph0-0">
<path style="stroke:none;" d="M 0.453125 1.59375 L 0.453125 -6.34375 L 4.953125 -6.34375 L 4.953125 1.59375 Z M 0.953125 1.09375 L 4.453125 1.09375 L 4.453125 -5.84375 L 0.953125 -5.84375 Z M 0.953125 1.09375 "/>
</symbol>
<symbol overflow="visible" id="glyph0-1">
<path style="stroke:none;" d="M 0.890625 -6.5625 L 2.078125 -6.5625 L 4.984375 -1.078125 L 4.984375 -6.5625 L 5.84375 -6.5625 L 5.84375 0 L 4.65625 0 L 1.75 -5.484375 L 1.75 0 L 0.890625 0 Z M 0.890625 -6.5625 "/>
</symbol>
<symbol overflow="visible" id="glyph0-2">
<path style="stroke:none;" d="M 0.890625 -6.5625 L 1.765625 -6.5625 L 1.765625 -3.875 L 5 -3.875 L 5 -6.5625 L 5.890625 -6.5625 L 5.890625 0 L 5 0 L 5 -3.125 L 1.765625 -3.125 L 1.765625 0 L 0.890625 0 Z M 0.890625 -6.5625 "/>
</symbol>
<symbol overflow="visible" id="glyph0-3">
<path style="stroke:none;" d="M 3.546875 -5.953125 C 2.898438 -5.953125 2.382812 -5.710938 2 -5.234375 C 1.625 -4.753906 1.4375 -4.101562 1.4375 -3.28125 C 1.4375 -2.445312 1.625 -1.789062 2 -1.3125 C 2.382812 -0.832031 2.898438 -0.59375 3.546875 -0.59375 C 4.191406 -0.59375 4.703125 -0.832031 5.078125 -1.3125 C 5.453125 -1.789062 5.640625 -2.445312 5.640625 -3.28125 C 5.640625 -4.101562 5.453125 -4.753906 5.078125 -5.234375 C 4.703125 -5.710938 4.191406 -5.953125 3.546875 -5.953125 Z M 3.546875 -6.6875 C 4.460938 -6.6875 5.195312 -6.375 5.75 -5.75 C 6.300781 -5.132812 6.578125 -4.3125 6.578125 -3.28125 C 6.578125 -2.238281 6.300781 -1.410156 5.75 -0.796875 C 5.195312 -0.179688 4.460938 0.125 3.546875 0.125 C 2.617188 0.125 1.878906 -0.179688 1.328125 -0.796875 C 0.773438 -1.410156 0.5 -2.238281 0.5 -3.28125 C 0.5 -4.3125 0.773438 -5.132812 1.328125 -5.75 C 1.878906 -6.375 2.617188 -6.6875 3.546875 -6.6875 Z M 3.546875 -6.6875 "/>
</symbol>
</g>
</defs>
<g id="surface30801">
<rect x="0" y="0" width="300" height="300" style="fill:rgb(100%,100%,100%);fill-opacity:1;stroke:none;"/>
<path style="fill:none;stroke-width:1.2;stroke-linecap:butt;stroke-linejoin:miter;stroke:rgb(0%,0%,0%);stroke-opacity:1;stroke-miterlimit:10;" d="M 35.25 89.648438 L 60.425781 87.960938 "/>
<path style="fill:none;stroke-width:1.2;stroke-linecap:butt;stroke-linejoin:miter;stroke:rgb(0%,0%,0%);stroke-opacity:1;stroke-miterlimit:10;" d="M 60.425781 87.960938 L 67.449219 98.441406 "/>
<path style="fill:none;stroke-width:1.2;stroke-linecap:butt;stroke-linejoin:miter;stroke:rgb(0%,0%,100%);stroke-opacity:1;stroke-miterlimit:10;" d="M 67.449219 98.441406 L 74.472656 108.921875 "/>
<path style="fill:none;stroke-width:1.2;stroke-linecap:butt;stroke-linejoin:miter;stroke:rgb(0%,0%,100%);stroke-opacity:1;stroke-miterlimit:10;" d="M 74.472656 108.921875 L 87.0625 108.078125 "/>
<path style="fill:none;stroke-width:1.2;stroke-linecap:butt;stroke-linejoin:miter;stroke:rgb(0%,0%,0%);stroke-opacity:1;stroke-miterlimit:10;" d="M 87.0625 108.078125 L 99.648438 107.238281 "/>
<path style=" stroke:none;fill-rule:nonzero;fill:rgb(100%,100%,100%);fill-opacity:1;" d="M 67.472656 103.421875 L 81.472656 103.421875 L 81.472656 114.421875 L 67.472656 114.421875 Z M 67.472656 103.421875 "/>
<g style="fill:rgb(0%,0%,100%);fill-opacity:1;">
  <use xlink:href="#glyph0-1" x="67.472656" y="112.084961"/>
  <use xlink:href="#glyph0-2" x="74.450195" y="112.084961"/>
</g>
<path style="fill:none;stroke-width:1.2;stroke-linecap:butt;stroke-linejoin:miter;stroke:rgb(0%,0%,0%);stroke-opacity:1;stroke-miterlimit:10;" d="M 99.648438 107.238281 L 105.210938 95.914062 "/>
<path style="fill:none;stroke-width:1.2;stroke-linecap:butt;stroke-linejoin:miter;stroke:rgb(0%,0%,100%);stroke-opacity:1;stroke-miterlimit:10;" d="M 105.210938 95.914062 L 110.777344 84.589844 "/>
<path style="fill:none;stroke-width:1.2;stroke-linecap:butt;stroke-linejoin:miter;stroke:rgb(0%,0%,0%);stroke-opacity:1;stroke-miterlimit:10;" d="M 106.089844 107.589844 L 110.542969 98.53125 "/>
<path style="fill:none;stroke-width:1.2;stroke-linecap:butt;stroke-linejoin:miter;stroke:rgb(0%,0%,100%);stroke-opacity:1;stroke-miterlimit:10;" d="M 110.542969 98.53125 L 114.992188 89.472656 "/>
<path style="fill:none;stroke-width:1.2;stroke-linecap:butt;stroke-linejoin:miter;stroke:rgb(0%,0%,100%);stroke-opacity:1;stroke-miterlimit:10;" d="M 113.695312 128.195312 L 106.671875 117.71875 "/>
<path style="fill:none;stroke-width:1.2;stroke-linecap:butt;stroke-linejoin:miter;stroke:rgb(0%,0%,0%);stroke-opacity:1;stroke-miterlimit:10;" d="M 106.671875 117.71875 L 99.648438 107.238281 "/>
<path style="fill:none;stroke-width:1.2;stroke-linecap:butt;stroke-linejoin:miter;stroke:rgb(0%,0%,100%);stroke-opacity:1;stroke-miterlimit:10;" d="M 110.777344 84.589844 L 123.363281 83.75 "/>
<path style="fill:none;stroke-width:1.2;stroke-linecap:butt;stroke-linejoin:miter;stroke:rgb(0%,0%,0%);stroke-opacity:1;stroke-miterlimit:10;" d="M 123.363281 83.75 L 135.953125 82.90625 "/>
<path style=" stroke:none;fill-rule:nonzero;fill:rgb(100%,100%,100%);fill-opacity:1;" d="M 107.777344 79.089844 L 114.777344 79.089844 L 114.777344 90.089844 L 107.777344 90.089844 Z M 107.777344 79.089844 "/>
<g style="fill:rgb(0%,0%,100%);fill-opacity:1;">
  <use xlink:href="#glyph0-1" x="107.777344" y="87.75293"/>
</g>
<path style="fill:none;stroke-width:1.2;stroke-linecap:butt;stroke-linejoin:miter;stroke:rgb(0%,0%,0%);stroke-opacity:1;stroke-miterlimit:10;" d="M 135.953125 82.90625 L 150 103.867188 "/>
<path style="fill:none;stroke-width:1.2;stroke-linecap:butt;stroke-linejoin:miter;stroke:rgb(0%,0%,0%);stroke-opacity:1;stroke-miterlimit:10;" d="M 132.425781 88.308594 L 143.664062 105.074219 "/>
<path style="fill:none;stroke-width:1.2;stroke-linecap:butt;stroke-linejoin:miter;stroke:rgb(0%,0%,0%);stroke-opacity:1;stroke-miterlimit:10;" d="M 150 103.867188 L 138.871094 126.511719 "/>
<path style="fill:none;stroke-width:1.2;stroke-linecap:butt;stroke-linejoin:miter;stroke:rgb(0%,0%,100%);stroke-opacity:1;stroke-miterlimit:10;" d="M 175.175781 102.183594 L 162.585938 103.023438 "/>
<path style="fill:none;stroke-width:1.2;stroke-linecap:butt;stroke-linejoin:miter;stroke:rgb(0%,0%,0%);stroke-opacity:1;stroke-miterlimit:10;" d="M 162.585938 103.023438 L 150 103.867188 "/>
<path style="fill:none;stroke-width:1.2;stroke-linecap:butt;stroke-linejoin:miter;stroke:rgb(0%,0%,0%);stroke-opacity:1;stroke-miterlimit:10;" d="M 138.871094 126.511719 L 126.285156 127.355469 "/>
<path style="fill:none;stroke-width:1.2;stroke-linecap:butt;stroke-linejoin:miter;stroke:rgb(0%,0%,100%);stroke-opacity:1;stroke-miterlimit:10;" d="M 126.285156 127.355469 L 113.695312 128.195312 "/>
<path style="fill:none;stroke-width:1.2;stroke-linecap:butt;stroke-linejoin:miter;stroke:rgb(0%,0%,0%);stroke-opacity:1;stroke-miterlimit:10;" d="M 135.957031 120.757812 L 125.886719 121.429688 "/>
<path style="fill:none;stroke-width:1.2;stroke-linecap:butt;stroke-linejoin:miter;stroke:rgb(0%,0%,100%);stroke-opacity:1;stroke-miterlimit:10;" d="M 125.886719 121.429688 L 115.816406 122.105469 "/>
<path style="fill:none;stroke-width:1.2;stroke-linecap:butt;stroke-linejoin:miter;stroke:rgb(0%,0%,0%);stroke-opacity:1;stroke-miterlimit:10;" d="M 138.871094 126.511719 L 145.894531 136.992188 "/>
<path style="fill:none;stroke-width:1.2;stroke-linecap:butt;stroke-linejoin:miter;stroke:rgb(0%,0%,100%);stroke-opacity:1;stroke-miterlimit:10;" d="M 145.894531 136.992188 L 152.917969 147.472656 "/>
<path style=" stroke:none;fill-rule:nonzero;fill:rgb(100%,100%,100%);fill-opacity:1;" d="M 110.695312 122.695312 L 117.695312 122.695312 L 117.695312 133.695312 L 110.695312 133.695312 Z M 110.695312 122.695312 "/>
<g style="fill:rgb(0%,0%,100%);fill-opacity:1;">
  <use xlink:href="#glyph0-1" x="110.695312" y="131.358398"/>
</g>
<path style="fill:none;stroke-width:1.2;stroke-linecap:butt;stroke-linejoin:miter;stroke:rgb(0%,0%,100%);stroke-opacity:1;stroke-miterlimit:10;" d="M 152.917969 147.472656 L 165.507812 146.628906 "/>
<path style="fill:none;stroke-width:1.2;stroke-linecap:butt;stroke-linejoin:miter;stroke:rgb(0%,0%,0%);stroke-opacity:1;stroke-miterlimit:10;" d="M 165.507812 146.628906 L 178.09375 145.789062 "/>
<path style="fill:none;stroke-width:1.2;stroke-linecap:butt;stroke-linejoin:miter;stroke:rgb(0%,0%,100%);stroke-opacity:1;stroke-miterlimit:10;" d="M 152.917969 147.472656 L 147.355469 158.796875 "/>
<path style="fill:none;stroke-width:1.2;stroke-linecap:butt;stroke-linejoin:miter;stroke:rgb(0%,0%,0%);stroke-opacity:1;stroke-miterlimit:10;" d="M 147.355469 158.796875 L 141.789062 170.117188 "/>
<path style=" stroke:none;fill-rule:nonzero;fill:rgb(100%,100%,100%);fill-opacity:1;" d="M 149.917969 141.972656 L 156.917969 141.972656 L 156.917969 152.972656 L 149.917969 152.972656 Z M 149.917969 141.972656 "/>
<g style="fill:rgb(0%,0%,100%);fill-opacity:1;">
  <use xlink:href="#glyph0-1" x="149.917969" y="150.635742"/>
</g>
<path style="fill:none;stroke-width:1.2;stroke-linecap:butt;stroke-linejoin:miter;stroke:rgb(0%,0%,0%);stroke-opacity:1;stroke-miterlimit:10;" d="M 175.628906 147.441406 L 182.652344 157.921875 "/>
<path style="fill:none;stroke-width:1.2;stroke-linecap:butt;stroke-linejoin:miter;stroke:rgb(100%,0%,0%);stroke-opacity:1;stroke-miterlimit:10;" d="M 182.652344 157.921875 L 189.675781 168.398438 "/>
<path style="fill:none;stroke-width:1.2;stroke-linecap:butt;stroke-linejoin:miter;stroke:rgb(0%,0%,0%);stroke-opacity:1;stroke-miterlimit:10;" d="M 180.558594 144.132812 L 187.582031 154.613281 "/>
<path style="fill:none;stroke-width:1.2;stroke-linecap:butt;stroke-linejoin:miter;stroke:rgb(100%,0%,0%);stroke-opacity:1;stroke-miterlimit:10;" d="M 187.582031 154.613281 L 194.609375 165.09375 "/>
<path style="fill:none;stroke-width:1.2;stroke-linecap:butt;stroke-linejoin:miter;stroke:rgb(0%,0%,0%);stroke-opacity:1;stroke-miterlimit:10;" d="M 178.09375 145.789062 L 189.222656 123.140625 "/>
<path style=" stroke:none;fill-rule:nonzero;fill:rgb(100%,100%,100%);fill-opacity:1;" d="M 188.140625 161.246094 L 196.140625 161.246094 L 196.140625 172.246094 L 188.140625 172.246094 Z M 188.140625 161.246094 "/>
<g style="fill:rgb(100%,0%,0%);fill-opacity:1;">
  <use xlink:href="#glyph0-3" x="188.140625" y="169.90918"/>
</g>
<path style="fill:none;stroke-width:1.2;stroke-linecap:butt;stroke-linejoin:miter;stroke:rgb(0%,0%,0%);stroke-opacity:1;stroke-miterlimit:10;" d="M 189.222656 123.140625 L 182.199219 112.660156 "/>
<path style="fill:none;stroke-width:1.2;stroke-linecap:butt;stroke-linejoin:miter;stroke:rgb(0%,0%,100%);stroke-opacity:1;stroke-miterlimit:10;" d="M 182.199219 112.660156 L 175.175781 102.183594 "/>
<path style="fill:none;stroke-width:1.2;stroke-linecap:butt;stroke-linejoin:miter;stroke:rgb(0%,0%,0%);stroke-opacity:1;stroke-miterlimit:10;" d="M 182.886719 124.351562 L 177.265625 115.96875 "/>
<path style="fill:none;stroke-width:1.2;stroke-linecap:butt;stroke-linejoin:miter;stroke:rgb(0%,0%,100%);stroke-opacity:1;stroke-miterlimit:10;" d="M 177.265625 115.96875 L 171.648438 107.582031 "/>
<path style="fill:none;stroke-width:1.2;stroke-linecap:butt;stroke-linejoin:miter;stroke:rgb(0%,0%,0%);stroke-opacity:1;stroke-miterlimit:10;" d="M 189.222656 123.140625 L 214.398438 121.457031 "/>
<path style=" stroke:none;fill-rule:nonzero;fill:rgb(100%,100%,100%);fill-opacity:1;" d="M 172.175781 96.683594 L 179.175781 96.683594 L 179.175781 107.683594 L 172.175781 107.683594 Z M 172.175781 96.683594 "/>
<g style="fill:rgb(0%,0%,100%);fill-opacity:1;">
  <use xlink:href="#glyph0-1" x="172.175781" y="105.34668"/>
</g>
<path style="fill:none;stroke-width:1.2;stroke-linecap:butt;stroke-linejoin:miter;stroke:rgb(0%,0%,0%);stroke-opacity:1;stroke-miterlimit:10;" d="M 214.398438 121.457031 L 228.445312 142.417969 "/>
<path style="fill:none;stroke-width:1.2;stroke-linecap:butt;stroke-linejoin:miter;stroke:rgb(0%,0%,0%);stroke-opacity:1;stroke-miterlimit:10;" d="M 220.734375 120.246094 L 231.972656 137.015625 "/>
<path style="fill:none;stroke-width:1.2;stroke-linecap:butt;stroke-linejoin:miter;stroke:rgb(0%,0%,0%);stroke-opacity:1;stroke-miterlimit:10;" d="M 225.527344 98.8125 L 214.398438 121.457031 "/>
<path style="fill:none;stroke-width:1.2;stroke-linecap:butt;stroke-linejoin:miter;stroke:rgb(0%,0%,0%);stroke-opacity:1;stroke-miterlimit:10;" d="M 228.445312 142.417969 L 253.621094 140.730469 "/>
<path style="fill:none;stroke-width:1.2;stroke-linecap:butt;stroke-linejoin:miter;stroke:rgb(0%,0%,0%);stroke-opacity:1;stroke-miterlimit:10;" d="M 253.621094 140.730469 L 264.75 118.085938 "/>
<path style="fill:none;stroke-width:1.2;stroke-linecap:butt;stroke-linejoin:miter;stroke:rgb(0%,0%,0%);stroke-opacity:1;stroke-miterlimit:10;" d="M 249.40625 135.847656 L 258.308594 117.734375 "/>
<path style="fill:none;stroke-width:1.2;stroke-linecap:butt;stroke-linejoin:miter;stroke:rgb(0%,0%,0%);stroke-opacity:1;stroke-miterlimit:10;" d="M 264.75 118.085938 L 250.703125 97.125 "/>
<path style="fill:none;stroke-width:1.2;stroke-linecap:butt;stroke-linejoin:miter;stroke:rgb(0%,0%,0%);stroke-opacity:1;stroke-miterlimit:10;" d="M 250.703125 97.125 L 225.527344 98.8125 "/>
<path style="fill:none;stroke-width:1.2;stroke-linecap:butt;stroke-linejoin:miter;stroke:rgb(0%,0%,0%);stroke-opacity:1;stroke-miterlimit:10;" d="M 248.582031 103.21875 L 228.441406 104.566406 "/>
<path style="fill:none;stroke-width:1.2;stroke-linecap:butt;stroke-linejoin:miter;stroke:rgb(0%,0%,0%);stroke-opacity:1;stroke-miterlimit:10;" d="M 141.789062 170.117188 L 116.613281 171.804688 "/>
<path style="fill:none;stroke-width:1.2;stroke-linecap:butt;stroke-linejoin:miter;stroke:rgb(0%,0%,0%);stroke-opacity:1;stroke-miterlimit:10;" d="M 116.613281 171.804688 L 105.484375 194.449219 "/>
<path style="fill:none;stroke-width:1.2;stroke-linecap:butt;stroke-linejoin:miter;stroke:rgb(0%,0%,0%);stroke-opacity:1;stroke-miterlimit:10;" d="M 105.484375 194.449219 L 99.921875 205.769531 "/>
<path style="fill:none;stroke-width:1.2;stroke-linecap:butt;stroke-linejoin:miter;stroke:rgb(0%,0%,100%);stroke-opacity:1;stroke-miterlimit:10;" d="M 99.921875 205.769531 L 94.355469 217.09375 "/>
<path style="fill:none;stroke-width:1.2;stroke-linecap:butt;stroke-linejoin:miter;stroke:rgb(0%,0%,0%);stroke-opacity:1;stroke-miterlimit:10;" d="M 99.042969 194.09375 L 94.59375 203.152344 "/>
<path style="fill:none;stroke-width:1.2;stroke-linecap:butt;stroke-linejoin:miter;stroke:rgb(0%,0%,100%);stroke-opacity:1;stroke-miterlimit:10;" d="M 94.59375 203.152344 L 90.140625 212.210938 "/>
<path style="fill:none;stroke-width:1.2;stroke-linecap:butt;stroke-linejoin:miter;stroke:rgb(0%,0%,0%);stroke-opacity:1;stroke-miterlimit:10;" d="M 109.703125 199.332031 L 105.25 208.390625 "/>
<path style="fill:none;stroke-width:1.2;stroke-linecap:butt;stroke-linejoin:miter;stroke:rgb(0%,0%,100%);stroke-opacity:1;stroke-miterlimit:10;" d="M 105.25 208.390625 L 100.796875 217.449219 "/>
<path style=" stroke:none;fill-rule:nonzero;fill:rgb(100%,100%,100%);fill-opacity:1;" d="M 87.355469 211.59375 L 94.355469 211.59375 L 94.355469 222.59375 L 87.355469 222.59375 Z M 87.355469 211.59375 "/>
<g style="fill:rgb(0%,0%,100%);fill-opacity:1;">
  <use xlink:href="#glyph0-1" x="87.355469" y="220.256836"/>
</g>
</g>
</svg>

<svg xmlns="http://www.w3.org/2000/svg" xmlns:xlink="http://www.w3.org/1999/xlink" width="300pt" height="300pt" viewBox="0 0 300 300"><defs><symbol overflow="visible"><path d="M.453 1.594v-7.938h4.5v7.938zm.5-.5h3.5v-6.938h-3.5zm0 0"/></symbol><symbol overflow="visible" id="a"><path d="M.89-6.563H2.08l2.906 5.485v-5.484h.86V0H4.656L1.75-5.484V0H.89zm0 0"/></symbol><symbol overflow="visible" id="b"><path d="M.89-6.563h.876v2.688H5v-2.688h.89V0H5v-3.125H1.766V0H.89zm0 0"/></symbol><symbol overflow="visible" id="c"><path d="M3.547-5.953c-.65 0-1.164.242-1.547.72-.375.48-.563 1.13-.563 1.952 0 .835.188 1.49.563 1.967.383.48.898.72 1.547.72.644 0 1.156-.24 1.53-.72.376-.476.564-1.132.564-1.968 0-.822-.187-1.474-.562-1.954-.375-.477-.887-.72-1.53-.72zm0-.734c.914 0 1.648.312 2.203.937.55.617.828 1.438.828 2.47 0 1.042-.277 1.87-.828 2.483-.555.617-1.29.922-2.203.922-.93 0-1.668-.305-2.22-.922C.774-1.41.5-2.237.5-3.28c0-1.033.273-1.853.828-2.47.55-.625 1.29-.938 2.22-.938zm0 0"/></symbol></defs><g><path fill="#fff" d="M0 0h300v300H0z"/><path d="M35.25 89.648l25.176-1.687M60.426 87.96l7.023 10.48" stroke-width="1.2" stroke="#000" stroke-miterlimit="10" fill="none"/><path d="M67.45 98.44l7.023 10.482M74.473 108.922l12.59-.844" stroke-width="1.2" stroke="#00f" stroke-miterlimit="10" fill="none"/><path d="M87.063 108.078l12.585-.84" stroke-width="1.2" stroke="#000" stroke-miterlimit="10" fill="none"/><path d="M67.473 103.422h14v11h-14zm0 0" fill="#fff"/><g fill="#00f"><use xlink:href="#a" x="67.473" y="112.085"/><use xlink:href="#b" x="74.45" y="112.085"/></g><path d="M99.648 107.238l5.563-11.324" stroke-width="1.2" stroke="#000" stroke-miterlimit="10" fill="none"/><path d="M105.21 95.914l5.567-11.324" stroke-width="1.2" stroke="#00f" stroke-miterlimit="10" fill="none"/><path d="M106.09 107.59l4.453-9.06" stroke-width="1.2" stroke="#000" stroke-miterlimit="10" fill="none"/><path d="M110.543 98.53l4.45-9.057M113.695 128.195l-7.023-10.476" stroke-width="1.2" stroke="#00f" stroke-miterlimit="10" fill="none"/><path d="M106.672 117.72l-7.024-10.482" stroke-width="1.2" stroke="#000" stroke-miterlimit="10" fill="none"/><path d="M110.777 84.59l12.586-.84" stroke-width="1.2" stroke="#00f" stroke-miterlimit="10" fill="none"/><path d="M123.363 83.75l12.59-.844" stroke-width="1.2" stroke="#000" stroke-miterlimit="10" fill="none"/><path d="M107.777 79.09h7v11h-7zm0 0" fill="#fff"/><use xlink:href="#a" x="107.777" y="87.753" fill="#00f"/><path d="M135.953 82.906L150 103.866M132.426 88.31l11.238 16.764M150 103.867l-11.13 22.645" stroke-width="1.2" stroke="#000" stroke-miterlimit="10" fill="none"/><path d="M175.176 102.184l-12.59.84" stroke-width="1.2" stroke="#00f" stroke-miterlimit="10" fill="none"/><path d="M162.586 103.023l-12.586.844M138.87 126.512l-12.585.843" stroke-width="1.2" stroke="#000" stroke-miterlimit="10" fill="none"/><path d="M126.285 127.355l-12.59.84" stroke-width="1.2" stroke="#00f" stroke-miterlimit="10" fill="none"/><path d="M135.957 120.758l-10.07.672" stroke-width="1.2" stroke="#000" stroke-miterlimit="10" fill="none"/><path d="M125.887 121.43l-10.07.675" stroke-width="1.2" stroke="#00f" stroke-miterlimit="10" fill="none"/><path d="M138.87 126.512l7.025 10.48" stroke-width="1.2" stroke="#000" stroke-miterlimit="10" fill="none"/><path d="M145.895 136.992l7.023 10.48" stroke-width="1.2" stroke="#00f" stroke-miterlimit="10" fill="none"/><path d="M110.695 122.695h7v11h-7zm0 0" fill="#fff"/><use xlink:href="#a" x="110.695" y="131.358" fill="#00f"/><path d="M152.918 147.473l12.59-.844" stroke-width="1.2" stroke="#00f" stroke-miterlimit="10" fill="none"/><path d="M165.508 146.63l12.586-.84" stroke-width="1.2" stroke="#000" stroke-miterlimit="10" fill="none"/><path d="M152.918 147.473l-5.563 11.324" stroke-width="1.2" stroke="#00f" stroke-miterlimit="10" fill="none"/><path d="M147.355 158.797l-5.566 11.32" stroke-width="1.2" stroke="#000" stroke-miterlimit="10" fill="none"/><path d="M149.918 141.973h7v11h-7zm0 0" fill="#fff"/><use xlink:href="#a" x="149.918" y="150.636" fill="#00f"/><path d="M175.63 147.44l7.022 10.482" stroke-width="1.2" stroke="#000" stroke-miterlimit="10" fill="none"/><path d="M182.652 157.922l7.024 10.476" stroke-width="1.2" stroke="#f00" stroke-miterlimit="10" fill="none"/><path d="M180.56 144.133l7.022 10.48" stroke-width="1.2" stroke="#000" stroke-miterlimit="10" fill="none"/><path d="M187.582 154.613l7.027 10.48" stroke-width="1.2" stroke="#f00" stroke-miterlimit="10" fill="none"/><path d="M178.094 145.79l11.13-22.65" stroke-width="1.2" stroke="#000" stroke-miterlimit="10" fill="none"/><path d="M188.14 161.246h8v11h-8zm0 0" fill="#fff"/><use xlink:href="#c" x="188.141" y="169.909" fill="#f00"/><path d="M189.223 123.14l-7.024-10.48" stroke-width="1.2" stroke="#000" stroke-miterlimit="10" fill="none"/><path d="M182.2 112.66l-7.024-10.476" stroke-width="1.2" stroke="#00f" stroke-miterlimit="10" fill="none"/><path d="M182.887 124.352l-5.62-8.383" stroke-width="1.2" stroke="#000" stroke-miterlimit="10" fill="none"/><path d="M177.266 115.97l-5.618-8.388" stroke-width="1.2" stroke="#00f" stroke-miterlimit="10" fill="none"/><path d="M189.223 123.14l25.175-1.683" stroke-width="1.2" stroke="#000" stroke-miterlimit="10" fill="none"/><path d="M172.176 96.684h7v11h-7zm0 0" fill="#fff"/><use xlink:href="#a" x="172.176" y="105.347" fill="#00f"/><path d="M214.398 121.457l14.047 20.96M220.734 120.246l11.24 16.77M225.527 98.813l-11.13 22.644M228.445 142.418l25.176-1.688M253.62 140.73l11.13-22.644M249.406 135.848l8.903-18.114M264.75 118.086l-14.047-20.96M250.703 97.125l-25.176 1.688M248.582 103.22l-20.14 1.346M141.79 170.117l-25.177 1.688M116.613 171.805l-11.13 22.644M105.484 194.45l-5.562 11.32" stroke-width="1.2" stroke="#000" stroke-miterlimit="10" fill="none"/><path d="M99.922 205.77l-5.567 11.324" stroke-width="1.2" stroke="#00f" stroke-miterlimit="10" fill="none"/><path d="M99.043 194.094l-4.45 9.058" stroke-width="1.2" stroke="#000" stroke-miterlimit="10" fill="none"/><path d="M94.594 203.152l-4.453 9.06" stroke-width="1.2" stroke="#00f" stroke-miterlimit="10" fill="none"/><path d="M109.703 199.332l-4.453 9.06" stroke-width="1.2" stroke="#000" stroke-miterlimit="10" fill="none"/><path d="M105.25 208.39l-4.453 9.06" stroke-width="1.2" stroke="#00f" stroke-miterlimit="10" fill="none"/><path d="M87.355 211.594h7v11h-7zm0 0" fill="#fff"/><use xlink:href="#a" x="87.355" y="220.257" fill="#00f"/></g></svg>
